icons/desktop/16/dollar-sign-circle-16.svg

<svg width="16" height="16" viewBox="0 0 16 16" fill="none" xmlns="http://www.w3.org/2000/svg">
<g clip-path="url(#clip0_22098_1079)">
<path d="M8 3C8.414 3 8.75 3.336 8.75 3.75V4.08301C9.41841 4.23954 10.0086 4.60399 10.3867 5.12891C10.6285 5.46492 10.5527 5.93371 10.2168 6.17578C9.8809 6.41776 9.41216 6.34146 9.16992 6.00586C8.97894 5.74076 8.55822 5.49711 8 5.49707C7.1141 5.49711 6.7041 6.04109 6.7041 6.37207C6.70414 6.52659 6.77855 6.71305 6.95312 6.87695L7.03418 6.94531L7.03516 6.94629C7.29931 7.14991 7.62947 7.20847 8.23535 7.26562C8.83085 7.32227 9.44445 7.53206 9.92676 7.90918C10.4206 8.29542 10.7959 8.87903 10.7959 9.62305C10.7958 10.8182 9.84652 11.6443 8.75 11.9072V12.25C8.75 12.664 8.414 13 8 13C7.586 13 7.25 12.664 7.25 12.25V11.9102C6.45895 11.7247 5.76952 11.2496 5.42383 10.5527C5.23983 10.1817 5.39165 9.73091 5.7627 9.54688C6.13368 9.36295 6.58348 9.51488 6.76758 9.88574C6.91394 10.1807 7.35621 10.498 8 10.498C8.88578 10.498 9.2958 9.95403 9.2959 9.62305C9.29589 9.43026 9.20937 9.25304 9.00195 9.09082C8.78292 8.91973 8.45484 8.7932 8.09277 8.75879C7.53324 8.70601 6.77329 8.6379 6.12012 8.13477C5.59282 7.72958 5.20414 7.10145 5.2041 6.37207C5.2041 5.17678 6.15328 4.34973 7.25 4.08691V3.75C7.25 3.336 7.586 3 8 3Z" fill="black"/>
<path fill-rule="evenodd" clip-rule="evenodd" d="M8 0C12.4183 0 16 3.58172 16 8C16 12.4183 12.4183 16 8 16C3.58172 16 0 12.4183 0 8C0 3.58172 3.58172 0 8 0ZM8 1.5C4.41015 1.5 1.5 4.41015 1.5 8C1.5 11.5899 4.41015 14.5 8 14.5C11.5899 14.5 14.5 11.5899 14.5 8C14.5 4.41015 11.5899 1.5 8 1.5Z" fill="black"/>
</g>
<defs>
<clipPath id="clip0_22098_1079">
<rect width="16" height="16" fill="white"/>
</clipPath>
</defs>
</svg>

<!-- This Source Code Form is subject to the terms of the Mozilla Public
   - License, v. 2.0. If a copy of the MPL was not distributed with this
   - file, You can obtain one at http://mozilla.org/MPL/2.0/. -->
<svg xmlns="http://www.w3.org/2000/svg" width="16" height="16" fill="context-fill" fill-opacity="context-fill-opacity" viewBox="0 0 16 16">
    <path d="M8 3a.75.75 0 0 1 .75.75v.333c.668.157 1.259.521 1.637 1.046a.75.75 0 0 1-1.217.877c-.191-.265-.612-.509-1.17-.509-.886 0-1.296.544-1.296.875 0 .155.075.341.25.505l.08.068.001.001c.264.204.594.262 1.2.32.596.056 1.21.266 1.692.643.494.386.869.97.869 1.714 0 1.195-.95 2.021-2.046 2.284v.343a.75.75 0 0 1-1.5 0v-.34c-.791-.185-1.48-.66-1.826-1.357a.75.75 0 0 1 1.344-.667c.146.295.588.612 1.232.612.886 0 1.296-.544 1.296-.875 0-.193-.087-.37-.294-.532-.22-.171-.547-.298-.91-.332-.559-.053-1.319-.121-1.972-.624-.527-.405-.916-1.034-.916-1.763 0-1.195.95-2.022 2.046-2.285V3.75A.75.75 0 0 1 8 3" />
    <path fill-rule="evenodd" d="M8 0a8 8 0 1 1 0 16A8 8 0 0 1 8 0m0 1.5a6.5 6.5 0 1 0 0 13 6.5 6.5 0 0 0 0-13" clip-rule="evenodd" />
</svg>
